assets/img/braze_icons/corner-down-right.svg

<svg fill="none" height="24" viewBox="0 0 24 24" width="24" xmlns="http://www.w3.org/2000/svg"><path d="m5 4c0-.55228-.44771-1-1-1-.55228 0-1 .44772-1 1v1.44441c-.00001 1.64253-.00001 2.9365.08507 3.97781.08679 1.06238.2671 1.94948.67788 2.75568.67112 1.3172 1.74198 2.388 3.05912 3.0591.8062.4108 1.69336.5911 2.75571.6779 1.04132.0851 2.33522.0851 3.97782.0851h4.0302l-3.2929 3.2929c-.3905.3905-.3905 1.0237 0 1.4142s1.0237.3905 1.4142 0l5-5c.3905-.3905.3905-1.0237 0-1.4142l-5-5.00001c-.3905-.39052-1.0237-.39052-1.4142 0-.3905.39053-.3905 1.02371 0 1.41421l3.2929 3.2929h-3.9858c-1.6967 0-2.909-.0008-3.85936-.0784-.93867-.0767-1.53332-.2234-2.01059-.4666-.94081-.4793-1.70572-1.2442-2.18508-2.185-.24318-.4773-.38985-1.072-.46655-2.01064-.07764-.95035-.07842-2.1627-.07842-3.85936z" fill="#801ed7"/></svg>

<svg width="24" height="24" viewBox="0 0 24 24" fill="none" xmlns="http://www.w3.org/2000/svg">
<path d="M5 4C5 3.44772 4.55229 3 4 3C3.44772 3 3 3.44772 3 4V5.44441C2.99999 7.08694 2.99999 8.38091 3.08507 9.42222C3.17186 10.4846 3.35217 11.3717 3.76295 12.1779C4.43407 13.4951 5.50493 14.5659 6.82207 15.237C7.62827 15.6478 8.51543 15.8281 9.57778 15.9149C10.6191 16 11.913 16 13.5556 16H17.5858L14.2929 19.2929C13.9024 19.6834 13.9024 20.3166 14.2929 20.7071C14.6834 21.0976 15.3166 21.0976 15.7071 20.7071L20.7071 15.7071C21.0976 15.3166 21.0976 14.6834 20.7071 14.2929L15.7071 9.29289C15.3166 8.90237 14.6834 8.90237 14.2929 9.29289C13.9024 9.68342 13.9024 10.3166 14.2929 10.7071L17.5858 14H13.6C11.9033 14 10.691 13.9992 9.74064 13.9216C8.80197 13.8449 8.20732 13.6982 7.73005 13.455C6.78924 12.9757 6.02433 12.2108 5.54497 11.27C5.30179 10.7927 5.15512 10.198 5.07842 9.25936C5.00078 8.30901 5 7.09666 5 5.4V4Z" fill="#801ED7"/>
</svg>
